X:4
T:Blackbird
Z: id:dc-hornpipe-4
M:C|
L:1/8
K:D Mixolydian
AG|F2FA GFD2|de (3fed d^cAF|G2GF GFDE|FdcA G2AG|!
F2FA GFD2|de (3fed d^cAG|AdcA GcAG|F2D2 D2:|!
fg|agfa gfeg|fd e^c d=cA2|agfa gfde|fdgf e2 fg|!
a2ge f3e|d^cde fdAG|AdcA GcAG|F2D2 D2:|!

